apps/www/public/images/logos/publicity/fixed-width/happyteams.svg

<svg width="180" height="60" viewBox="0 0 180 60" fill="none" xmlns="http://www.w3.org/2000/svg">
<path d="M67.0913 36.3009V30.9006H62.792V36.3009H60.485V24.2244H62.792V29.0655H67.0913V24.2244H69.4157V36.3009H67.0913Z" fill="#7E7E7E"/>
<path d="M78.9909 33.8542C78.9909 34.2153 79.0433 34.4833 79.1482 34.6581C79.2647 34.8212 79.4453 34.9494 79.6899 35.0426L79.2181 36.5281C78.6938 36.4815 78.2627 36.3533 77.9248 36.1436C77.5985 35.9339 77.348 35.6135 77.1733 35.1824C76.8587 35.6484 76.4625 35.998 75.9848 36.231C75.5188 36.4524 74.9945 36.5631 74.4119 36.5631C73.4915 36.5631 72.7633 36.3009 72.2273 35.7766C71.6914 35.2523 71.4234 34.5649 71.4234 33.7143C71.4234 32.7123 71.7846 31.9492 72.5069 31.4249C73.241 30.8889 74.2838 30.6209 75.6353 30.6209H76.7888V30.0966C76.7888 29.5024 76.649 29.0888 76.3693 28.8558C76.1014 28.6111 75.6644 28.4888 75.0586 28.4888C74.3828 28.4888 73.5672 28.6519 72.6118 28.9781L72.0875 27.4576C73.241 27.0149 74.3595 26.7935 75.4431 26.7935C77.8083 26.7935 78.9909 27.8538 78.9909 29.9743V33.8542ZM75.0061 34.9377C75.7635 34.9377 76.3577 34.5591 76.7888 33.8017V31.9317H75.8625C74.4177 31.9317 73.6954 32.4677 73.6954 33.5396C73.6954 33.9823 73.8061 34.326 74.0274 34.5707C74.2488 34.8154 74.575 34.9377 75.0061 34.9377Z" fill="#7E7E7E"/>
<path d="M86.4867 26.7935C87.6518 26.7935 88.514 27.2188 89.0732 28.0693C89.6325 28.9198 89.9121 30.1141 89.9121 31.6521C89.9121 32.6075 89.7665 33.458 89.4752 34.2037C89.1956 34.9377 88.7761 35.5145 88.2169 35.9339C87.6693 36.3533 87.0168 36.5631 86.2595 36.5631C85.2808 36.5631 84.506 36.2252 83.935 35.5494V39.8662L81.698 40.1109V27.0556H83.6554L83.7778 28.1916C84.1389 27.7256 84.5526 27.3761 85.0186 27.143C85.4847 26.91 85.974 26.7935 86.4867 26.7935ZM85.6303 34.8503C86.9236 34.8503 87.5702 33.7901 87.5702 31.6695C87.5702 30.5394 87.4246 29.7238 87.1333 29.2228C86.842 28.7218 86.4051 28.4713 85.8225 28.4713C85.4497 28.4713 85.1002 28.5878 84.7739 28.8208C84.4477 29.0422 84.1681 29.3451 83.935 29.7296V33.8891C84.3661 34.5299 84.9312 34.8503 85.6303 34.8503Z" fill="#7E7E7E"/>
<path d="M96.8977 26.7935C98.0628 26.7935 98.925 27.2188 99.4843 28.0693C100.044 28.9198 100.323 30.1141 100.323 31.6521C100.323 32.6075 100.178 33.458 99.8862 34.2037C99.6066 34.9377 99.1872 35.5145 98.6279 35.9339C98.0803 36.3533 97.4278 36.5631 96.6705 36.5631C95.6918 36.5631 94.917 36.2252 94.3461 35.5494V39.8662L92.109 40.1109V27.0556H94.0664L94.1888 28.1916C94.55 27.7256 94.9636 27.3761 95.4296 27.143C95.8957 26.91 96.385 26.7935 96.8977 26.7935ZM96.0413 34.8503C97.3346 34.8503 97.9813 33.7901 97.9813 31.6695C97.9813 30.5394 97.8356 29.7238 97.5443 29.2228C97.2531 28.7218 96.8161 28.4713 96.2336 28.4713C95.8607 28.4713 95.5112 28.5878 95.185 28.8208C94.8587 29.0422 94.5791 29.3451 94.3461 29.7296V33.8891C94.7772 34.5299 95.3423 34.8503 96.0413 34.8503Z" fill="#7E7E7E"/>
<path d="M106.892 36.3359C106.519 37.4777 105.954 38.3632 105.196 38.9924C104.439 39.6332 103.402 40.006 102.086 40.1109L101.858 38.4855C102.464 38.3923 102.948 38.2583 103.309 38.0836C103.682 37.9204 103.979 37.6991 104.2 37.4194C104.422 37.1398 104.626 36.767 104.812 36.3009H104.043L101.107 27.0556H103.484L105.494 34.8154L107.591 27.0556H109.898L106.892 36.3359Z" fill="#7E7E7E"/>
<path d="M119.088 24.2244L118.843 26.0595H115.698V36.3009H113.373V26.0595H110.123V24.2244H119.088Z" fill="#7E7E7E"/>
<path d="M127.155 31.4598C127.155 31.5763 127.138 31.8793 127.103 32.3686H121.3C121.37 33.2658 121.603 33.9066 122 34.2911C122.396 34.6756 122.92 34.8678 123.572 34.8678C123.98 34.8678 124.365 34.8037 124.726 34.6756C125.087 34.5358 125.472 34.326 125.879 34.0464L126.806 35.3222C125.78 36.1494 124.639 36.5631 123.38 36.5631C121.97 36.5631 120.881 36.132 120.112 35.2698C119.355 34.4076 118.976 33.2308 118.976 31.7395C118.976 30.7957 119.139 29.951 119.465 29.2053C119.792 28.448 120.264 27.8596 120.881 27.4401C121.499 27.009 122.233 26.7935 123.083 26.7935C124.376 26.7935 125.378 27.2071 126.089 28.0344C126.8 28.8499 127.155 29.9918 127.155 31.4598ZM124.936 30.8132C124.936 29.1937 124.336 28.3839 123.136 28.3839C122.588 28.3839 122.157 28.5878 121.842 28.9956C121.539 29.3917 121.359 30.0325 121.3 30.918H124.936V30.8132Z" fill="#7E7E7E"/>
<path d="M135.825 33.8542C135.825 34.2153 135.877 34.4833 135.982 34.6581C136.099 34.8212 136.279 34.9494 136.524 35.0426L136.052 36.5281C135.528 36.4815 135.097 36.3533 134.759 36.1436C134.433 35.9339 134.182 35.6135 134.007 35.1824C133.693 35.6484 133.297 35.998 132.819 36.231C132.353 36.4524 131.828 36.5631 131.246 36.5631C130.325 36.5631 129.597 36.3009 129.061 35.7766C128.525 35.2523 128.257 34.5649 128.257 33.7143C128.257 32.7123 128.619 31.9492 129.341 31.4249C130.075 30.8889 131.118 30.6209 132.469 30.6209H133.623V30.0966C133.623 29.5024 133.483 29.0888 133.203 28.8558C132.935 28.6111 132.498 28.4888 131.893 28.4888C131.217 28.4888 130.401 28.6519 129.446 28.9781L128.921 27.4576C130.075 27.0149 131.193 26.7935 132.277 26.7935C134.642 26.7935 135.825 27.8538 135.825 29.9743V33.8542ZM131.84 34.9377C132.597 34.9377 133.192 34.5591 133.623 33.8017V31.9317H132.696C131.252 31.9317 130.529 32.4677 130.529 33.5396C130.529 33.9823 130.64 34.326 130.861 34.5707C131.083 34.8154 131.409 34.9377 131.84 34.9377Z" fill="#7E7E7E"/>
<path d="M148.337 26.7935C149.082 26.7935 149.676 27.0498 150.119 27.5625C150.562 28.0635 150.783 28.7451 150.783 29.6073V36.3009H148.546V29.9568C148.546 28.9665 148.208 28.4713 147.533 28.4713C147.171 28.4713 146.857 28.5878 146.589 28.8208C146.332 29.0422 146.065 29.3917 145.785 29.8694V36.3009H143.548V29.9568C143.548 28.9665 143.21 28.4713 142.534 28.4713C142.161 28.4713 141.841 28.5878 141.573 28.8208C141.317 29.0422 141.049 29.3917 140.769 29.8694V36.3009H138.532V27.0556H140.472L140.647 28.2616C141.346 27.2828 142.237 26.7935 143.321 26.7935C143.857 26.7935 144.317 26.9333 144.701 27.2129C145.097 27.4809 145.383 27.8596 145.558 28.3489C145.931 27.8479 146.338 27.4634 146.781 27.1955C147.235 26.9275 147.754 26.7935 148.337 26.7935Z" fill="#7E7E7E"/>
<path d="M156.299 26.7935C157.546 26.7935 158.641 27.1605 159.585 27.8945L158.711 29.2053C157.919 28.7043 157.144 28.4538 156.387 28.4538C155.944 28.4538 155.6 28.5412 155.355 28.7159C155.111 28.8791 154.988 29.1004 154.988 29.3801C154.988 29.5898 155.041 29.7646 155.146 29.9044C155.251 30.0442 155.437 30.1782 155.705 30.3063C155.985 30.4229 156.392 30.5568 156.928 30.7083C157.93 30.9763 158.67 31.3317 159.148 31.7744C159.637 32.2172 159.882 32.8347 159.882 33.627C159.882 34.5474 159.509 35.2698 158.763 35.7941C158.018 36.3067 157.091 36.5631 155.985 36.5631C155.227 36.5631 154.534 36.4466 153.905 36.2135C153.287 35.9805 152.751 35.6601 152.297 35.2523L153.415 33.994C154.219 34.5998 155.058 34.9028 155.932 34.9028C156.433 34.9028 156.829 34.8037 157.121 34.6057C157.423 34.4076 157.575 34.1338 157.575 33.7842C157.575 33.5163 157.517 33.3065 157.4 33.1551C157.295 32.992 157.097 32.8521 156.806 32.7356C156.526 32.6075 156.084 32.456 155.478 32.2812C154.534 32.0249 153.841 31.6695 153.398 31.2151C152.955 30.7491 152.734 30.1724 152.734 29.4849C152.734 28.9723 152.879 28.5121 153.171 28.1043C153.474 27.6965 153.893 27.3761 154.429 27.143C154.977 26.91 155.6 26.7935 156.299 26.7935Z" fill="#7E7E7E"/>
<path d="M51.2184 32.9627C51.4028 32.0034 51.4993 31.0129 51.4993 30C51.4993 21.3576 44.4743 14.3515 35.8087 14.3515C27.1431 14.3515 20.1182 21.3576 20.1182 30C20.1182 38.6424 27.1431 45.6484 35.8087 45.6484C37.4337 45.6484 39.001 45.4021 40.4751 44.9448C40.171 44.1237 39.9821 43.2467 39.9279 42.3335C38.6332 42.7634 37.2482 42.9962 35.8087 42.9962C28.6118 42.9962 22.7776 37.1776 22.7776 30C22.7776 22.8224 28.6118 17.0038 35.8087 17.0038C43.0056 17.0038 48.8399 22.8224 48.8399 30C48.8399 30.9268 48.7426 31.8309 48.5577 32.7028C48.7064 32.6955 48.856 32.6919 49.0065 32.6919C49.7694 32.6919 50.5104 32.7858 51.2184 32.9627Z" fill="#7E7E7E"/>
<path d="M49.0936 33.3636C44.3936 33.3636 40.5835 37.1635 40.5835 41.8509C40.5835 42.8657 40.8358 43.9398 41.0896 44.741C42.4003 43.3073 51.0814 33.6009 51.0814 33.6009C51.0814 33.6009 49.706 33.3636 49.0936 33.3636Z" fill="#7E7E7E"/>
<path fill-rule="evenodd" clip-rule="evenodd" d="M30.1535 28.8631C30.5333 28.8242 30.8729 29.0999 30.9118 29.4787C31.1494 31.789 33.2046 33.6386 35.7562 33.6386C38.3042 33.6386 40.3573 31.7941 40.5995 29.4884C40.6393 29.1096 40.9794 28.8347 41.3592 28.8744C41.739 28.9141 42.0147 29.2533 41.9749 29.6321C41.6546 32.6813 38.9698 35.0177 35.7562 35.0177C32.5382 35.0177 29.8503 32.6748 29.5361 29.6194C29.4972 29.2406 29.7736 28.9019 30.1535 28.8631Z" fill="#7E7E7E"/>
<path fill-rule="evenodd" clip-rule="evenodd" d="M39.3686 24.9606C38.7095 24.9606 38.1756 25.5075 38.1756 26.1819C38.1756 26.8571 38.7095 27.4038 39.3686 27.4038C40.0278 27.4038 40.5609 26.8571 40.5609 26.1819C40.5609 25.5075 40.0278 24.9606 39.3686 24.9606Z" fill="#7E7E7E"/>
<path fill-rule="evenodd" clip-rule="evenodd" d="M32.1084 24.9606C31.45 24.9606 30.9154 25.5075 30.9154 26.1819C30.9154 26.8571 31.45 27.4038 32.1084 27.4038C32.7669 27.4038 33.3014 26.8571 33.3014 26.1819C33.3014 25.5075 32.7669 24.9606 32.1084 24.9606Z" fill="#7E7E7E"/>
</svg>

<svg xmlns="http://www.w3.org/2000/svg" width="180" height="60" fill="none" viewBox="0 0 180 60"><path fill="#7e7e7e" d="M67.091 36.3v-5.4h-4.299v5.4h-2.307V24.225h2.307v4.842h4.3v-4.842h2.324v12.077zM78.99 33.854q0 .542.158.804.175.244.542.385l-.472 1.485q-.786-.07-1.293-.384-.49-.315-.752-.962-.471.7-1.188 1.049a3.6 3.6 0 0 1-1.573.332q-1.38 0-2.185-.786-.804-.787-.804-2.063 0-1.503 1.084-2.29 1.101-.803 3.128-.803h1.154v-.524q0-.892-.42-1.241-.402-.367-1.31-.367-1.014 0-2.447.49l-.524-1.521q1.73-.664 3.355-.664 3.548 0 3.548 3.18zm-3.984 1.084q1.136 0 1.783-1.136v-1.87h-.927q-2.166 0-2.167 1.608 0 .663.332 1.03.332.368.98.368M86.487 26.794q1.748 0 2.586 1.275.84 1.276.84 3.583 0 1.433-.438 2.552-.42 1.1-1.258 1.73-.822.63-1.957.63-1.47 0-2.325-1.015v4.317l-2.237.245V27.056h1.957l.123 1.136a3.6 3.6 0 0 1 1.24-1.049q.7-.35 1.469-.35m-.857 8.056q1.94 0 1.94-3.18 0-1.695-.437-2.447t-1.31-.752q-.56 0-1.05.35a2.9 2.9 0 0 0-.838.909v4.16q.647.96 1.695.96M96.898 26.794q1.748 0 2.586 1.275.84 1.276.839 3.583 0 1.433-.437 2.552-.42 1.1-1.258 1.73-.822.63-1.957.63-1.47 0-2.325-1.015v4.317l-2.237.245V27.056h1.957l.123 1.136a3.6 3.6 0 0 1 1.24-1.049q.7-.35 1.469-.35m-.857 8.056q1.94 0 1.94-3.18 0-1.695-.437-2.447-.436-.752-1.31-.752a1.77 1.77 0 0 0-1.049.35 2.9 2.9 0 0 0-.839.909v4.16q.646.96 1.695.96M106.892 36.336q-.56 1.713-1.696 2.656-1.136.962-3.11 1.119l-.228-1.625q.91-.141 1.451-.402.56-.245.891-.665.333-.42.612-1.118h-.769l-2.936-9.245h2.377l2.01 7.76 2.097-7.76h2.307zM119.088 24.224l-.245 1.835h-3.145v10.242h-2.325V26.059h-3.25v-1.835zM127.155 31.46q0 .175-.052.909H121.3q.105 1.346.7 1.922.594.577 1.572.577.612 0 1.154-.192a5.7 5.7 0 0 0 1.153-.63l.927 1.276q-1.538 1.24-3.426 1.241-2.115 0-3.268-1.293-1.136-1.294-1.136-3.53 0-1.416.489-2.535.49-1.135 1.416-1.765.927-.646 2.202-.646 1.94 0 3.006 1.24 1.066 1.224 1.066 3.426m-2.219-.647q0-2.43-1.8-2.43-.822 0-1.294.613-.454.594-.542 1.922h3.636zM135.825 33.854q0 .542.157.804.175.244.542.385l-.472 1.485q-.786-.07-1.293-.384-.49-.315-.752-.962-.471.7-1.188 1.049a3.6 3.6 0 0 1-1.573.332q-1.381 0-2.185-.786-.804-.787-.804-2.063 0-1.503 1.084-2.29 1.101-.803 3.128-.803h1.154v-.524q0-.892-.42-1.241-.402-.367-1.31-.367-1.014 0-2.447.49l-.525-1.521q1.73-.664 3.356-.664 3.548 0 3.548 3.18zm-3.985 1.084q1.136 0 1.783-1.136v-1.87h-.927q-2.166 0-2.167 1.608 0 .663.332 1.03.333.368.979.368M148.337 26.794q1.118 0 1.782.768.664.753.664 2.045v6.694h-2.237v-6.344q0-1.485-1.013-1.486-.542 0-.944.35-.385.331-.804 1.048v6.432h-2.237v-6.344q0-1.485-1.014-1.486-.56 0-.961.35-.384.331-.804 1.048v6.432h-2.237v-9.245h1.94l.175 1.206q1.048-1.469 2.674-1.468.804 0 1.38.419.594.402.857 1.136.559-.752 1.223-1.154.681-.401 1.556-.401M156.299 26.794q1.87 0 3.286 1.1l-.874 1.311q-1.188-.75-2.324-.751-.665 0-1.032.262a.76.76 0 0 0-.367.664q0 .315.158.524.157.21.559.402.42.175 1.223.402 1.503.402 2.22 1.066.734.664.734 1.853 0 1.38-1.119 2.167-1.118.77-2.778.77a6 6 0 0 1-2.08-.35 5 5 0 0 1-1.608-.962l1.118-1.258q1.206.909 2.517.909.751 0 1.189-.297.453-.297.454-.822 0-.401-.175-.629-.157-.244-.594-.42-.42-.191-1.328-.454-1.416-.384-2.08-1.066-.664-.7-.664-1.73 0-.77.437-1.38.454-.613 1.258-.962.822-.35 1.87-.35M51.218 32.963q.28-1.442.281-2.963c0-8.642-7.025-15.648-15.69-15.648-8.666 0-15.69 7.006-15.69 15.648s7.024 15.648 15.69 15.648c1.625 0 3.192-.246 4.666-.703a9 9 0 0 1-.547-2.611 13 13 0 0 1-4.12.662c-7.196 0-13.03-5.818-13.03-12.996s5.834-12.996 13.03-12.996c7.198 0 13.032 5.818 13.032 12.996 0 .927-.097 1.83-.282 2.703a9.2 9.2 0 0 1 2.66.26"/><path fill="#7e7e7e" d="M49.094 33.364c-4.7 0-8.51 3.8-8.51 8.487 0 1.015.252 2.089.506 2.89 1.31-1.434 9.991-11.14 9.991-11.14s-1.375-.237-1.987-.237"/><path fill="#7e7e7e" fill-rule="evenodd" d="M30.154 28.863a.69.69 0 0 1 .758.616c.237 2.31 2.293 4.16 4.844 4.16 2.548 0 4.601-1.845 4.843-4.15a.69.69 0 0 1 1.376.143c-.32 3.05-3.005 5.386-6.219 5.386-3.218 0-5.906-2.343-6.22-5.399a.69.69 0 0 1 .617-.756M39.369 24.96c-.66 0-1.193.547-1.193 1.222s.533 1.222 1.193 1.222c.659 0 1.192-.547 1.192-1.222s-.533-1.221-1.192-1.221M32.108 24.96c-.658 0-1.193.547-1.193 1.222s.535 1.222 1.193 1.222c.659 0 1.193-.547 1.193-1.222s-.534-1.221-1.193-1.221" clip-rule="evenodd"/></svg>
